src/images/Logo_SavedNews.svg

<svg width="134" height="21" viewBox="0 0 134 21" fill="none" xmlns="http://www.w3.org/2000/svg">
<path d="M15.0781 1.78125V3.5L13.5547 3.79297V16H10.7129L4.9707 6.42969L4.91211 6.43945V13.998L6.43555 14.291V16H0.546875V14.291L2.06055 13.998V3.79297L0.546875 3.5V1.78125H2.06055H4.91211L10.6543 11.3516L10.7129 11.3418V3.79297L9.18945 3.5V1.78125H13.5547H15.0781ZM21.123 16.2051C19.5996 16.2051 18.3822 15.7168 17.4707 14.7402C16.5592 13.7637 16.1035 12.5234 16.1035 11.0195V10.6289C16.1035 9.0599 16.5332 7.76758 17.3926 6.75195C18.2585 5.73633 19.4173 5.23177 20.8691 5.23828C22.2949 5.23828 23.4017 5.66797 24.1895 6.52734C24.9772 7.38672 25.3711 8.54883 25.3711 10.0137V11.5664H19.0625L19.043 11.625C19.0951 12.3216 19.3262 12.8945 19.7363 13.3438C20.153 13.793 20.7161 14.0176 21.4258 14.0176C22.0573 14.0176 22.5814 13.9557 22.998 13.832C23.4147 13.7018 23.8704 13.5 24.3652 13.2266L25.1367 14.9844C24.7005 15.3294 24.1341 15.6191 23.4375 15.8535C22.7474 16.0879 21.9759 16.2051 21.123 16.2051ZM20.8691 7.43555C20.3418 7.43555 19.9251 7.63737 19.6191 8.04102C19.3132 8.44466 19.1243 8.97526 19.0527 9.63281L19.082 9.68164H22.5781V9.42773C22.5781 8.82227 22.4349 8.34049 22.1484 7.98242C21.8685 7.61784 21.4421 7.43555 20.8691 7.43555ZM41.7871 7.15234L40.7227 7.28906L38.5156 16H36.1328L34.1699 9.71094H34.1113L32.1484 16H29.7754L27.5586 7.28906L26.4941 7.15234V5.43359H31.2793V7.15234L30.1562 7.36719L31.1523 12.2012H31.2109L33.1836 5.43359H35.0977L37.0898 12.2207H37.1484L38.1348 7.37695L37.002 7.15234V5.43359H41.7871V7.15234ZM51.3867 9.06641H49.4727L49.1699 7.74805C48.9746 7.5918 48.7272 7.46159 48.4277 7.35742C48.1348 7.25326 47.8092 7.20117 47.4512 7.20117C46.9499 7.20117 46.5527 7.3151 46.2598 7.54297C45.9668 7.76432 45.8203 8.04427 45.8203 8.38281C45.8203 8.70182 45.9603 8.96875 46.2402 9.18359C46.5202 9.39193 47.0801 9.57747 47.9199 9.74023C49.2285 10.0007 50.1986 10.3848 50.8301 10.8926C51.4616 11.3939 51.7773 12.0872 51.7773 12.9727C51.7773 13.9232 51.3672 14.7012 50.5469 15.3066C49.7331 15.9056 48.6589 16.2051 47.3242 16.2051C46.5104 16.2051 45.7617 16.0879 45.0781 15.8535C44.401 15.6126 43.7988 15.2708 43.2715 14.8281L43.2422 12.4551H45.2344L45.625 13.832C45.7943 13.9753 46.0254 14.0827 46.3184 14.1543C46.6113 14.2194 46.9173 14.252 47.2363 14.252C47.8158 14.252 48.2552 14.1478 48.5547 13.9395C48.8607 13.7311 49.0137 13.4479 49.0137 13.0898C49.0137 12.7773 48.8607 12.5072 48.5547 12.2793C48.2487 12.0514 47.6855 11.8496 46.8652 11.6738C45.6217 11.4199 44.681 11.0456 44.043 10.5508C43.4115 10.0495 43.0957 9.36914 43.0957 8.50977C43.0957 7.62435 43.4603 6.86263 44.1895 6.22461C44.9186 5.58008 45.957 5.25781 47.3047 5.25781C48.125 5.25781 48.8997 5.36849 49.6289 5.58984C50.3646 5.8112 50.9408 6.0944 51.3574 6.43945L51.3867 9.06641ZM62.168 9.75H57.3535V13.8125H61.9434L62.0703 12.1133H64.2383V16H52.9883V14.291L54.502 13.998V3.79297L52.9883 3.5V1.78125H54.502H64.2188V5.67773H62.0312L61.9043 3.97852H57.3535V7.55273H62.168V9.75ZM65.5273 14.291L66.5137 14.1348L69.3848 10.6582L66.6113 7.31836L65.625 7.15234V5.43359H70.3809V7.08398L69.4141 7.20117L71.0156 9.23242L72.5879 7.20117L71.6016 7.08398V5.43359H76.377V7.15234L75.4199 7.31836L72.7051 10.6582L75.5664 14.1348L76.5625 14.291V16H71.7285V14.3594L72.6953 14.2422L71.0547 12.1133L69.3848 14.252L70.2344 14.3594V16H65.5273V14.291ZM77.2559 7.15234V5.43359H81.3965L81.5332 6.66406C81.8457 6.20833 82.2201 5.85677 82.6562 5.60938C83.0924 5.36198 83.6003 5.23828 84.1797 5.23828C85.4883 5.23828 86.5039 5.74935 87.2266 6.77148C87.9492 7.79362 88.3105 9.13802 88.3105 10.8047V11.0098C88.3105 12.5723 87.9492 13.8288 87.2266 14.7793C86.5039 15.7298 85.4948 16.2051 84.1992 16.2051C83.6458 16.2051 83.1543 16.1042 82.7246 15.9023C82.2949 15.694 81.9271 15.3913 81.6211 14.9941V18.0508L82.998 18.3438V20.0625H77.4023V18.3438L78.7793 18.0508V7.44531L77.2559 7.15234ZM85.459 10.8047C85.459 9.80859 85.293 9.0013 84.9609 8.38281C84.6289 7.76432 84.1211 7.45508 83.4375 7.45508C83.0078 7.45508 82.64 7.54297 82.334 7.71875C82.0345 7.89453 81.7969 8.14518 81.6211 8.4707V13.0996C81.7969 13.3991 82.0345 13.627 82.334 13.7832C82.64 13.9395 83.0143 14.0176 83.457 14.0176C84.1471 14.0176 84.6517 13.7474 84.9707 13.207C85.2962 12.6667 85.459 11.9342 85.459 11.0098V10.8047ZM89.082 2.48438V0.765625H93.457V13.998L94.834 14.291V16H89.2285V14.291L90.6055 13.998V2.77734L89.082 2.48438ZM95.5762 10.6191C95.5762 9.04362 96.0156 7.75456 96.8945 6.75195C97.7799 5.74284 99.0007 5.23828 100.557 5.23828C102.119 5.23828 103.34 5.73958 104.219 6.74219C105.104 7.74479 105.547 9.03711 105.547 10.6191V10.8242C105.547 12.4128 105.104 13.7083 104.219 14.7109C103.34 15.707 102.126 16.2051 100.576 16.2051C99.0072 16.2051 97.7799 15.707 96.8945 14.7109C96.0156 13.7083 95.5762 12.4128 95.5762 10.8242V10.6191ZM98.4277 10.8242C98.4277 11.7878 98.597 12.5625 98.9355 13.1484C99.2741 13.7279 99.821 14.0176 100.576 14.0176C101.312 14.0176 101.849 13.7246 102.188 13.1387C102.533 12.5527 102.705 11.7812 102.705 10.8242V10.6191C102.705 9.68164 102.533 8.91667 102.188 8.32422C101.842 7.73177 101.299 7.43555 100.557 7.43555C99.8145 7.43555 99.2741 7.73177 98.9355 8.32422C98.597 8.91667 98.4277 9.68164 98.4277 10.6191V10.8242ZM107.002 14.291L108.369 13.998V7.44531L106.855 7.15234V5.43359H111.025L111.152 6.97656C111.4 6.42969 111.719 6.00326 112.109 5.69727C112.5 5.39128 112.952 5.23828 113.467 5.23828C113.617 5.23828 113.773 5.2513 113.936 5.27734C114.105 5.29688 114.245 5.32292 114.355 5.35547L114.053 7.95312L112.881 7.92383C112.464 7.92383 112.119 8.00521 111.846 8.16797C111.572 8.33073 111.364 8.56185 111.221 8.86133V13.998L112.588 14.291V16H107.002V14.291ZM120.068 16.2051C118.545 16.2051 117.327 15.7168 116.416 14.7402C115.505 13.7637 115.049 12.5234 115.049 11.0195V10.6289C115.049 9.0599 115.479 7.76758 116.338 6.75195C117.204 5.73633 118.363 5.23177 119.814 5.23828C121.24 5.23828 122.347 5.66797 123.135 6.52734C123.923 7.38672 124.316 8.54883 124.316 10.0137V11.5664H118.008L117.988 11.625C118.04 12.3216 118.271 12.8945 118.682 13.3438C119.098 13.793 119.661 14.0176 120.371 14.0176C121.003 14.0176 121.527 13.9557 121.943 13.832C122.36 13.7018 122.816 13.5 123.311 13.2266L124.082 14.9844C123.646 15.3294 123.079 15.6191 122.383 15.8535C121.693 16.0879 120.921 16.2051 120.068 16.2051ZM119.814 7.43555C119.287 7.43555 118.87 7.63737 118.564 8.04102C118.258 8.44466 118.07 8.97526 117.998 9.63281L118.027 9.68164H121.523V9.42773C121.523 8.82227 121.38 8.34049 121.094 7.98242C120.814 7.61784 120.387 7.43555 119.814 7.43555ZM125.889 14.291L127.256 13.998V7.44531L125.742 7.15234V5.43359H129.912L130.039 6.97656C130.286 6.42969 130.605 6.00326 130.996 5.69727C131.387 5.39128 131.839 5.23828 132.354 5.23828C132.503 5.23828 132.66 5.2513 132.822 5.27734C132.992 5.29688 133.132 5.32292 133.242 5.35547L132.939 7.95312L131.768 7.92383C131.351 7.92383 131.006 8.00521 130.732 8.16797C130.459 8.33073 130.251 8.56185 130.107 8.86133V13.998L131.475 14.291V16H125.889V14.291Z" fill="#1A1B22"/>
</svg>

<svg xmlns="http://www.w3.org/2000/svg" fill="none" viewBox="0 0 134 21"><path fill="#1A1B22" d="M15.078 1.781V3.5l-1.523.293V16h-2.842L4.97 6.43l-.059.01v7.558l1.524.293V16H.546v-1.709l1.515-.293V3.793L.547 3.5V1.781h4.365l5.742 9.57.059-.01V3.794L9.189 3.5V1.781H15.078zm6.045 14.424c-1.523 0-2.74-.488-3.652-1.465-.912-.976-1.367-2.217-1.367-3.72v-.391c0-1.57.43-2.861 1.289-3.877.866-1.016 2.024-1.52 3.476-1.514 1.426 0 2.533.43 3.32 1.29.788.859 1.182 2.02 1.182 3.486v1.552h-6.308l-.02.059c.052.697.283 1.27.693 1.719.417.449.98.674 1.69.674.631 0 1.155-.062 1.572-.186.417-.13.872-.332 1.367-.605l.772 1.757c-.436.345-1.003.635-1.7.87-.69.234-1.461.351-2.314.351zm-.254-8.77c-.527 0-.944.202-1.25.606-.306.404-.495.934-.566 1.592l.029.049h3.496v-.254c0-.606-.143-1.088-.43-1.446-.28-.364-.706-.546-1.279-.546zm20.918-.283l-1.064.137L38.516 16h-2.383L34.17 9.71h-.059L32.148 16h-2.373L27.56 7.29l-1.065-.138V5.434h4.785v1.718l-1.123.215.996 4.834h.059l1.973-6.767h1.914l1.992 6.787h.058l.987-4.844-1.133-.225V5.434h4.785v1.718zm9.6 1.914h-1.914l-.303-1.318a2.487 2.487 0 0 0-.742-.39 2.899 2.899 0 0 0-.977-.157c-.501 0-.898.114-1.191.342-.293.221-.44.501-.44.84 0 .319.14.586.42.8.28.209.84.394 1.68.557 1.308.26 2.279.645 2.91 1.153.632.5.947 1.194.947 2.08 0 .95-.41 1.728-1.23 2.334-.814.599-1.888.898-3.223.898a6.885 6.885 0 0 1-2.246-.351 5.813 5.813 0 0 1-1.806-1.026l-.03-2.373h1.992l.391 1.377c.17.143.4.25.693.322.293.065.6.098.918.098.58 0 1.02-.104 1.319-.313.306-.208.459-.491.459-.85 0-.312-.153-.582-.46-.81-.305-.228-.869-.43-1.689-.605-1.243-.254-2.184-.628-2.822-1.123-.632-.502-.947-1.182-.947-2.041 0-.886.364-1.647 1.094-2.285.729-.645 1.767-.967 3.115-.967.82 0 1.595.11 2.324.332.736.221 1.312.504 1.728.85l.03 2.626zm10.781.684h-4.815v4.063h4.59l.127-1.7h2.168V16h-11.25v-1.709l1.514-.293V3.793L52.988 3.5V1.781H64.22v3.897H62.03l-.127-1.7h-4.55v3.575h4.814V9.75zm3.36 4.541l.986-.156 2.87-3.477-2.773-3.34-.986-.166V5.434h4.756v1.65l-.967.117 1.602 2.031 1.572-2.03-.986-.118v-1.65h4.775v1.718l-.957.166-2.715 3.34 2.861 3.477.996.156V16h-4.834v-1.64l.967-.118-1.64-2.129-1.67 2.139.85.107V16h-4.708v-1.709zm11.728-7.139V5.434h4.14l.137 1.23a3.388 3.388 0 0 1 1.123-1.055c.436-.247.944-.37 1.524-.37 1.308 0 2.324.51 3.047 1.532.722 1.023 1.084 2.367 1.084 4.034v.205c0 1.562-.362 2.819-1.084 3.77-.723.95-1.732 1.425-3.028 1.425-.553 0-1.045-.1-1.474-.303a3.075 3.075 0 0 1-1.104-.908v3.057l1.377.293v1.718h-5.596v-1.718l1.377-.293V7.445l-1.523-.293zm8.203 3.653c0-.996-.166-1.804-.498-2.422-.332-.619-.84-.928-1.523-.928-.43 0-.798.088-1.104.264-.3.176-.537.426-.713.752V13.1c.176.3.413.527.713.683.306.157.68.235 1.123.235.69 0 1.195-.27 1.514-.811.325-.54.488-1.273.488-2.197v-.205zm3.623-8.32V.764h4.375v13.233l1.377.293V16h-5.606v-1.709l1.378-.293V2.778l-1.524-.294zm6.494 8.134c0-1.575.44-2.864 1.319-3.867.885-1.01 2.106-1.514 3.662-1.514 1.562 0 2.783.502 3.662 1.504.885 1.003 1.328 2.295 1.328 3.877v.205c0 1.589-.443 2.884-1.328 3.887-.879.996-2.093 1.494-3.643 1.494-1.569 0-2.796-.498-3.681-1.494-.88-1.003-1.319-2.298-1.319-3.887v-.205zm2.852.205c0 .964.169 1.739.508 2.324.338.58.885.87 1.64.87.736 0 1.273-.293 1.612-.88.345-.585.517-1.357.517-2.314v-.205c0-.937-.172-1.702-.517-2.295-.346-.592-.889-.888-1.631-.888-.743 0-1.283.296-1.621.888-.339.593-.508 1.358-.508 2.295v.205zm8.574 3.467l1.367-.293V7.445l-1.514-.293V5.434h4.17l.127 1.543c.248-.547.567-.974.957-1.28a2.14 2.14 0 0 1 1.358-.459c.15 0 .306.013.469.04.169.019.309.045.419.077l-.302 2.598-1.172-.03c-.417 0-.762.082-1.035.245a1.573 1.573 0 0 0-.625.693v5.137l1.367.293V16h-5.586v-1.709zm13.066 1.914c-1.523 0-2.741-.488-3.652-1.465-.911-.976-1.367-2.217-1.367-3.72v-.391c0-1.57.43-2.861 1.289-3.877.866-1.016 2.025-1.52 3.476-1.514 1.426 0 2.533.43 3.321 1.29.788.859 1.181 2.02 1.181 3.486v1.552h-6.308l-.02.059c.052.697.283 1.27.694 1.719.416.449.979.674 1.689.674.632 0 1.156-.062 1.572-.186.417-.13.873-.332 1.368-.605l.771 1.757c-.436.345-1.003.635-1.699.87-.69.234-1.462.351-2.315.351zm-.254-8.77c-.527 0-.944.202-1.25.606-.306.404-.494.934-.566 1.592l.029.049h3.496v-.254c0-.606-.143-1.088-.429-1.446-.28-.364-.707-.546-1.28-.546zm6.075 6.856l1.367-.293V7.445l-1.514-.293V5.434h4.17l.127 1.543c.247-.547.566-.974.957-1.28a2.14 2.14 0 0 1 1.358-.459c.149 0 .306.013.468.04.17.019.31.045.42.077l-.303 2.598-1.171-.03c-.417 0-.762.082-1.036.245a1.585 1.585 0 0 0-.625.693v5.137l1.368.293V16h-5.586v-1.709z"/></svg>
